vectors/flickr/flickr.svg

<svg version="1.1" xmlns="http://www.w3.org/2000/svg" xmlns:xlink="http://www.w3.org/1999/xlink" viewBox="0 0 512 155">
	<g>
		<path d="M21.3412713,73.4025426 L0.908899225,73.4025426 L0.908899225,48.2510388 L21.9187597,48.2510388 L21.9187597,41.8629457 C21.9187597,10.9206822 35.9888372,0.138914729 63.744,0.138914729 C71.2612713,0.138914729 77.0421085,1.33755039 81.4754729,2.13531783 L79.3540465,26.8899225 C76.4646202,25.8917209 73.5732093,25.2924031 68.3698605,25.2924031 C59.5031318,25.2924031 56.0342326,31.6804961 56.0342326,41.8629457 L56.0342326,48.2510388 L80.7035039,48.2510388 L80.7035039,73.4025426 L56.0342326,73.4025426 L56.0342326,152.254512 L21.3412713,152.254512 L21.3412713,73.4025426" fill="#385C9A" />
		<path d="M98.819969,2.53420155 L133.51293,2.53420155 L133.51293,152.252527 L98.819969,152.252527 L98.819969,2.53420155 Z" fill="#385C9A" />
		<path d="M163.193054,4.92948837 L197.886016,4.92948837 L197.886016,31.2796279 L163.193054,31.2796279 L163.193054,4.92948837 Z" fill="#385C9A" />
		<path d="M163.193054,48.2510388 L197.886016,48.2510388 L197.886016,152.254512 L163.193054,152.254512 L163.193054,48.2510388 Z" fill="#385C9A" />
		<path d="M302.15938,77.9926822 C295.79907,74.0018605 289.43876,72.2058915 281.151504,72.2058915 C266.116961,72.2058915 254.553302,82.9836899 254.553302,100.951318 C254.553302,117.52186 268.045891,128.297674 283.082419,128.297674 C290.980713,128.297674 298.882977,126.50369 304.665798,123.308651 L305.437767,150.057674 C296.763535,153.054264 286.356837,154.651783 277.105116,154.651783 C243.952124,154.651783 218.70338,134.687752 218.70338,100.352 C218.70338,65.8177984 243.952124,45.8537674 277.105116,45.8537674 C287.511814,45.8537674 296.763535,47.6517209 304.665798,51.6425426 L302.15938,77.9926822" fill="#385C9A" />
		<path d="M319.894822,2.53420155 L354.585798,2.53420155 L354.585798,91.9694884 L354.972775,91.9694884 L383.882915,48.2510388 L421.852279,48.2510388 L386.964837,95.9603101 L424.74369,152.254512 L382.723969,152.254512 L354.972775,100.752868 L354.585798,100.752868 L354.585798,152.254512 L319.894822,152.254512 L319.894822,2.53420155" fill="#385C9A" />
		<path d="M509.352682,76.9944806 C505.500775,75.7978295 501.642915,75.7978295 497.596527,75.7978295 C481.407008,75.7978295 472.347783,87.9746977 472.347783,108.337612 L472.347783,152.254512 L437.654822,152.254512 L437.654822,48.2510388 L469.263876,48.2510388 L469.263876,67.4153178 L469.650853,67.4153178 C475.624186,54.2382636 484.298419,45.8537674 499.332961,45.8537674 C503.37538,45.8537674 507.616248,46.4530853 511.089116,47.0524031 L509.352682,76.9944806" fill="#DB2176" />
	</g>
</svg>

<svg xmlns="http://www.w3.org/2000/svg" viewBox="0 0 512 155"><path d="M21.341 73.403H.91V48.25h21.01v-6.388C21.919 10.92 35.989.139 63.744.139c7.517 0 13.298 1.199 17.731 1.996L79.354 26.89c-2.89-.998-5.78-1.598-10.984-1.598-8.867 0-12.336 6.388-12.336 16.57v6.389h24.67v25.152h-24.67v78.852H21.341V73.403M98.82 2.534h34.693v149.719H98.82V2.534zm64.373 2.396h34.693v26.35h-34.693V4.93zm0 43.321h34.693v104.004h-34.693V48.25zM302.16 77.993c-6.36-3.991-12.721-5.787-21.008-5.787-15.035 0-26.599 10.778-26.599 28.745 0 16.57 13.493 27.347 28.53 27.347 7.898 0 15.8-1.794 21.583-4.99l.772 26.75c-8.674 2.996-19.081 4.594-28.333 4.594-33.153 0-58.402-19.964-58.402-54.3 0-34.534 25.25-54.498 58.402-54.498 10.407 0 19.659 1.798 27.56 5.789l-2.506 26.35m17.736-75.459h34.69V91.97h.388l28.91-43.718h37.97l-34.888 47.71 37.779 56.294h-42.02l-27.751-51.502h-.387v51.502h-34.691V2.535" fill="#385C9A"/><path d="M509.353 76.994c-3.852-1.196-7.71-1.196-11.756-1.196-16.19 0-25.25 12.177-25.25 32.54v43.917h-34.692V48.25h31.609v19.164h.387c5.973-13.177 14.647-21.561 29.682-21.561 4.042 0 8.283.6 11.756 1.198l-1.736 29.942" fill="#DB2176"/></svg>
